svg/emoji_u2b55.svg

<?xml version="1.0" encoding="UTF-8"?>
<svg width="128" height="128" enable-background="new 0 0 128 128" xmlns="http://www.w3.org/2000/svg"><linearGradient id="a" x1="64" x2="64" y1="3.25" y2="123.48" gradientUnits="userSpaceOnUse"><stop stop-color="#FF5252" offset="0"/><stop stop-color="#EE3030" offset=".4455"/><stop stop-color="#D50000" offset="1"/></linearGradient><path d="m64 28c19.85 0 36 16.15 36 36s-16.15 36-36 36-36-16.15-36-36 16.15-36 36-36m0-24c-33.14 0-60 26.86-60 60s26.86 60 60 60 60-26.86 60-60-26.86-60-60-60z" fill="url(#a)"/><g opacity=".2"><path d="m64 7c31.43 0 57 25.57 57 57s-25.57 57-57 57-57-25.57-57-57 25.57-57 57-57m0 96c21.5 0 39-17.5 39-39s-17.5-39-39-39-39 17.5-39 39 17.5 39 39 39m0-99c-33.14 0-60 26.86-60 60s26.86 60 60 60 60-26.86 60-60-26.86-60-60-60zm0 96c-19.85 0-36-16.15-36-36s16.15-36 36-36 36 16.15 36 36-16.15 36-36 36z" fill="#424242"/></g></svg>

<svg width="128" height="128" style="enable-background:new 0 0 128 128;" xmlns="http://www.w3.org/2000/svg" xmlns:xlink="http://www.w3.org/1999/xlink">
  <g>
    <linearGradient id="SVGID_1_" gradientUnits="userSpaceOnUse" x1="64" x2="64" y1="3.25" y2="123.4823">
      <stop offset="0" style="stop-color:#FF5252"/>
      <stop offset="0.4455" style="stop-color:#EE3030"/>
      <stop offset="1" style="stop-color:#D50000"/>
    </linearGradient>
    <path d="M64,28c19.85,0,36,16.15,36,36s-16.15,36-36,36S28,83.85,28,64S44.15,28,64,28 M64,4 C30.86,4,4,30.86,4,64s26.86,60,60,60s60-26.86,60-60S97.14,4,64,4L64,4z" style="fill:url(#SVGID_1_);"/>
    <g style="opacity:0.2;">
      <path d="M64,7c31.43,0,57,25.57,57,57s-25.57,57-57,57S7,95.43,7,64S32.57,7,64,7 M64,103 c21.5,0,39-17.5,39-39S85.5,25,64,25S25,42.5,25,64S42.5,103,64,103 M64,4C30.86,4,4,30.86,4,64c0,33.14,26.86,60,60,60 s60-26.86,60-60C124,30.86,97.14,4,64,4L64,4z M64,100c-19.85,0-36-16.15-36-36s16.15-36,36-36s36,16.15,36,36S83.85,100,64,100 L64,100z" style="fill:#424242;"/>
    </g>
  </g>
</svg>
